img/svg/icon-font/user.svg

<svg width="22" height="22" viewBox="0 0 22 22" fill="none" xmlns="http://www.w3.org/2000/svg">
<g clip-path="url(#clip0)">
<path d="M21.9446 18.8513C21.8479 18.3867 21.3929 18.0885 20.9281 18.1852C20.4634 18.2819 20.1652 18.737 20.2619 19.2017C20.3177 19.4693 20.2513 19.7436 20.0799 19.9544C19.9807 20.0765 19.7593 20.2812 19.3925 20.2812H2.60828C2.24142 20.2812 2.02008 20.0765 1.92083 19.9544C1.74942 19.7437 1.68308 19.4693 1.73881 19.2017C2.63067 14.9179 6.40913 11.7886 10.7726 11.6831C10.8481 11.686 10.9241 11.6875 11.0004 11.6875C11.077 11.6875 11.1532 11.686 11.2291 11.6831C14.3027 11.7568 17.1436 13.3136 18.864 15.8794C19.1283 16.2736 19.6621 16.3789 20.0564 16.1146C20.4506 15.8503 20.5559 15.3165 20.2916 14.9223C18.8815 12.8192 16.8339 11.29 14.4992 10.5215C15.9219 9.45467 16.8441 7.75487 16.8441 5.84375C16.8441 2.62152 14.2226 0 11.0004 0C7.77811 0 5.15663 2.62152 5.15663 5.84375C5.15663 7.75603 6.07994 9.45673 7.50414 10.5235C6.19927 10.9531 4.97487 11.6216 3.90323 12.503C1.93818 14.1194 0.571907 16.3739 0.0561536 18.8513C-0.105495 19.6277 0.0881653 20.425 0.587376 21.0388C1.08414 21.6497 1.82075 22 2.60828 22H19.3924C20.18 22 20.9166 21.6497 21.4133 21.0388C21.9126 20.425 22.1063 19.6277 21.9446 18.8513ZM6.87538 5.84375C6.87538 3.5692 8.72583 1.71875 11.0004 1.71875C13.2749 1.71875 15.1254 3.5692 15.1254 5.84375C15.1254 8.04826 13.3871 9.85441 11.2092 9.96351C11.1397 9.96222 11.0701 9.96157 11.0004 9.96157C10.931 9.96157 10.8617 9.96226 10.7924 9.96355C8.61411 9.85488 6.87538 8.04856 6.87538 5.84375Z" fill="#4C51CB"/>
</g>
<defs>
<clipPath id="clip0">
<rect width="22" height="22" fill="white"/>
</clipPath>
</defs>
</svg>

<svg width="22" height="22" fill="none" xmlns="http://www.w3.org/2000/svg"><g clip-path="url(#clip0)"><path d="M21.945 18.851a.86.86 0 10-1.683.35.897.897 0 01-.182.753.873.873 0 01-.688.327H2.608a.873.873 0 01-.687-.327.898.898 0 01-.182-.752c.892-4.284 4.67-7.413 9.034-7.519a5.937 5.937 0 00.456 0 9.454 9.454 0 017.635 4.196.86.86 0 001.428-.957 11.179 11.179 0 00-5.793-4.4 5.839 5.839 0 002.345-4.678A5.85 5.85 0 0011 0a5.85 5.85 0 00-5.843 5.844 5.84 5.84 0 002.347 4.68 11.169 11.169 0 00-3.6 1.979 11.212 11.212 0 00-3.848 6.348A2.61 2.61 0 002.608 22h16.784a2.61 2.61 0 002.552-3.149zM6.875 5.844A4.13 4.13 0 0111 1.719a4.13 4.13 0 014.125 4.125 4.13 4.13 0 01-3.916 4.12 11.251 11.251 0 00-.417 0 4.13 4.13 0 01-3.917-4.12z" fill="#4C51CB"/></g><defs><clipPath id="clip0"><path fill="#fff" d="M0 0h22v22H0z"/></clipPath></defs></svg>
